X:243
T: Megyek az utcán lefelé
M:4/4
L:1/4
K:F
G>B d<B | d>^c B<G |
f/e/d/f/ a<e | d2 d z |
g>a g<d | c>B d<B | 
f/<e/d/^c/ B<A | G2 G z | 

